X: 1902
T: The Summons
C:Ray Mulligan
B: australian traditional tunes wiki
M:6/8
L:1/8
R: Jig
Q: 3/8=100
K:D
V:1 
|:g| "D"f2d d2g|f2dd2d|"A"eee efe|"D"f2dd2g|
f2d d2g|f2dd2d|"A"eee cec|"D"d3-d2:|
|:c/B/|"D"A2d fdA|"G"B2d gdB|"D"ABAD2F|FGF"A"E3|
"D"AFA fdA|"G"B2dG2d|"A"c^Bce2c|"D"d3-d2:|
% abcbook-tune_id 6342d53a92b9f61cf7517000


% abcbook-boost 0
% abcbook-tablature 
% abcbook-transpose 
% abcbook-lastupdated 1665324391711
% abcbook-soundfonts 
% abcbook-repeats 1
% NFF Book 2008

